assets/Other/icon-calendar-type02.svg

<svg xmlns="http://www.w3.org/2000/svg" width="15" height="15" viewBox="0 0 15 15"><title>icon-calendar-type02</title><path fill="#888" fill-rule="nonzero" d="M9.4 1.7v1.8c0 .8.7 1.5 1.5 1.5h.9c.8 0 1.5-.7 1.5-1.5V1.7c.7 0 1.3.6 1.3 1.3v10.6c0 .7-.6 1.4-1.3 1.4h-12C.6 15 0 14.4 0 13.6V3c0-.7.6-1.3 1.3-1.3v1.8C1.3 4.3 2 5 2.8 5h.9c.8 0 1.5-.7 1.5-1.5V1.7zm2.9 5.2h-10c-.3 0-.6.3-.6.6V13c0 .3.3.6.6.6h10c.3 0 .6-.3.6-.6V7.5c0-.3-.3-.6-.6-.6m-7.4 4c.2 0 .3.2.3.3v1.2c0 .2-.2.3-.3.3H3.8c-.2 0-.3-.2-.3-.3v-1.2c0-.2.2-.3.3-.3zm3 0c.2 0 .3.2.3.3v1.2c0 .2-.2.3-.3.3H6.7c-.2 0-.3-.2-.3-.3v-1.2c0-.2.2-.3.3-.3zm3 0c.2 0 .3.2.3.3v1.2c0 .2-.2.3-.3.3H9.7c-.2 0-.3-.2-.3-.3v-1.2c0-.2.2-.3.3-.3zm-6-3c.2 0 .3.2.3.3v1.2c0 .2-.2.3-.3.3H3.8c-.2 0-.3-.2-.3-.3V8.3c0-.2.2-.3.3-.3h1.1zm3 0c.2 0 .3.2.3.3v1.2c0 .2-.2.3-.3.3H6.7c-.2 0-.3-.2-.3-.3V8.3c0-.2.2-.3.3-.3h1.2zm3 0c.2 0 .3.2.3.3v1.2c0 .2-.2.3-.3.3H9.7c-.2 0-.3-.2-.3-.3V8.3c0-.2.2-.3.3-.3h1.2zM3.7 0c.3 0 .5.2.5.5v3c0 .3-.2.5-.5.5h-.9c-.3 0-.5-.2-.5-.5v-3c0-.3.2-.5.5-.5zm8.1 0c.3 0 .5.2.5.5v3c0 .3-.2.5-.5.5h-.9c-.3 0-.5-.2-.5-.5v-3c0-.3.2-.5.5-.5z"/></svg>

<?xml version="1.0" encoding="UTF-8"?>
<svg width="15px" height="15px" viewBox="0 0 15 15" version="1.1" xmlns="http://www.w3.org/2000/svg" xmlns:xlink="http://www.w3.org/1999/xlink">
    <title>icon-calendar-type02</title>
    <g id="icon-set最新整理" stroke="none" stroke-width="1" fill="none" fill-rule="evenodd">
        <g id="images/h5/icon-set" transform="translate(-120.000000, -1223.000000)" fill="#888888" fill-rule="nonzero">
            <g id="icon-calendar-type02" transform="translate(120.000000, 1223.000000)">
                <path d="M9.4,1.7 L9.4,3.5 C9.4,4.3 10.1,5 10.9,5 L10.9,5 L11.8,5 C12.6,5 13.3,4.3 13.3,3.5 L13.3,3.5 L13.3,1.7 C14,1.7 14.6,2.3 14.6,3 L14.6,3 L14.6,13.6 C14.6,14.3 14,15 13.3,15 L13.3,15 L1.3,15 C0.6,15 0,14.4 0,13.6 L0,13.6 L0,3 C0,2.3 0.6,1.7 1.3,1.7 L1.3,1.7 L1.3,3.5 C1.3,4.3 2,5 2.8,5 L2.8,5 L3.7,5 C4.5,5 5.2,4.3 5.2,3.5 L5.2,3.5 L5.2,1.7 L9.4,1.7 Z M12.3,6.9 L2.3,6.9 C2,6.9 1.7,7.2 1.7,7.5 L1.7,7.5 L1.7,13 C1.7,13.3 2,13.6 2.3,13.6 L2.3,13.6 L12.3,13.6 C12.6,13.6 12.9,13.3 12.9,13 L12.9,13 L12.9,7.5 C12.9,7.2 12.6,6.9 12.3,6.9 L12.3,6.9 Z M4.9,10.9 C5.1,10.9 5.2,11.1 5.2,11.2 L5.2,11.2 L5.2,12.4 C5.2,12.6 5,12.7 4.9,12.7 L4.9,12.7 L3.8,12.7 C3.6,12.7 3.5,12.5 3.5,12.4 L3.5,12.4 L3.5,11.2 C3.5,11 3.7,10.9 3.8,10.9 L3.8,10.9 L4.9,10.9 Z M7.9,10.9 C8.1,10.9 8.2,11.1 8.2,11.2 L8.2,11.2 L8.2,12.4 C8.2,12.6 8,12.7 7.9,12.7 L7.9,12.7 L6.7,12.7 C6.5,12.7 6.4,12.5 6.4,12.4 L6.4,12.4 L6.4,11.2 C6.4,11 6.6,10.9 6.7,10.9 L6.7,10.9 L7.9,10.9 Z M10.9,10.9 C11.1,10.9 11.2,11.1 11.2,11.2 L11.2,11.2 L11.2,12.4 C11.2,12.6 11,12.7 10.9,12.7 L10.9,12.7 L9.7,12.7 C9.5,12.7 9.4,12.5 9.4,12.4 L9.4,12.4 L9.4,11.2 C9.4,11 9.6,10.9 9.7,10.9 L9.7,10.9 L10.9,10.9 Z M4.9,7.9 C5.1,7.9 5.2,8.1 5.2,8.2 L5.2,8.2 L5.2,9.4 C5.2,9.6 5,9.7 4.9,9.7 L4.9,9.7 L3.8,9.7 C3.6,9.7 3.5,9.5 3.5,9.4 L3.5,9.4 L3.5,8.3 C3.5,8.1 3.7,8 3.8,8 L3.8,8 L4.9,8 L4.9,7.9 Z M7.9,7.9 C8.1,7.9 8.2,8.1 8.2,8.2 L8.2,8.2 L8.2,9.4 C8.2,9.6 8,9.7 7.9,9.7 L7.9,9.7 L6.7,9.7 C6.5,9.7 6.4,9.5 6.4,9.4 L6.4,9.4 L6.4,8.3 C6.4,8.1 6.6,8 6.7,8 L6.7,8 L7.9,8 L7.9,7.9 Z M10.9,7.9 C11.1,7.9 11.2,8.1 11.2,8.2 L11.2,8.2 L11.2,9.4 C11.2,9.6 11,9.7 10.9,9.7 L10.9,9.7 L9.7,9.7 C9.5,9.7 9.4,9.5 9.4,9.4 L9.4,9.4 L9.4,8.3 C9.4,8.1 9.6,8 9.7,8 L9.7,8 L10.9,8 L10.9,7.9 Z M3.7,0 C4,0 4.2,0.2 4.2,0.5 L4.2,0.5 L4.2,3.5 C4.2,3.8 4,4 3.7,4 L3.7,4 L2.8,4 C2.5,4 2.3,3.8 2.3,3.5 L2.3,3.5 L2.3,0.5 C2.3,0.2 2.5,0 2.8,0 L2.8,0 L3.7,0 Z M11.8,0 C12.1,0 12.3,0.2 12.3,0.5 L12.3,0.5 L12.3,3.5 C12.3,3.8 12.1,4 11.8,4 L11.8,4 L10.9,4 C10.6,4 10.4,3.8 10.4,3.5 L10.4,3.5 L10.4,0.5 C10.4,0.2 10.6,0 10.9,0 L10.9,0 L11.8,0 Z" id="形状结合"></path>
            </g>
        </g>
    </g>
</svg>
